X:1
T:A la maniere de ... Alexander Borodine
T:À la manière de . . . Alexander Borodine
T:Valse
T:M.Ravel
Z:M.Ravel
%%score { ( 1 4 ) | ( 2 3 ) }
L:1/8
Q:1/4=192
M:3/4
K:Db
V:1 bass nm="Piano" snm="Pno."
V:4 bass 
V:2 bass 
V:3 bass 
V:1
"^Allegro giusto"!p! ([G,B,]3 F [G,B,]2- | [G,B,]F [G,C]3 F | [F,D]3 F [F,D]2- | [F,D]F [F,C]3 F | %4
!p! [G,B,]3 F [G,B,]2- | [G,B,]F [G,C]3 F |!p!!<(! [F,D]3 F [F,D]2- | [F,D]E [CF]3 B!<)! | %8
[K:treble]!mp! [_CEA]3 B [CEA]2- | [_CEA]B [C=DF]3 A | [B,EG]3 A [B,EG]2- | [B,EG]A [B,E]3 G | %12
 [CF]3!>(! G [G,E]2- | [G,E]F [G,C]3 E |[K:bass] [F,D]3 C[Q:1/4=184] [F,B,]2-[Q:1/4=188] | %15
[Q:1/4=180] [F,B,]4)!>)! z2 |[K:treble]!pp![Q:1/4=192] ([GB]3 f [GB]2- | [GB]f [Gc]3 f | %18
 [Fd]3 f [Fd]2- | [Fd]f [Fc]3 f | [GB]3 f [GB]2- | [GB]f [Gc]3 f |!pp!!<(! [Fd]3 f [Fd]2- | %23
 [Fd]e [cf]3 b!<)! |!p! [_cea]3 b [cea]2- | [cea]b [_c=df]3 a | [Beg]3 a [Beg]2- | [Beg]a [Be]3 g | %28
!>(! [cf]3 g [Ge]2- | [Ge]f [Gc]3 e | d3 c[Q:1/4=184] B2)!>)![Q:1/4=188] |[Q:1/4=180] z6 | %32
!pp![Q:1/4=192] (e'2 !>!f'3 e' | =d'_d' c'2 _c'2) | (b2 !>!c'3 b | %35
 =a_a[Q:1/4=188] =g2[Q:1/4=184] _g2) |!pp![Q:1/4=192]!<(! (e2 !>!f3 e) | (=d2 !>!e3 d) | %38
 (_d2 e2 B2) | ([EA_c]BABce)!<)! |!p! (a2 !>!b3 a | =g_g f2 _f2) | (e2 !>!f3 e | %43
 __ed[Q:1/4=188] c2[Q:1/4=184] _c2) |[Q:1/4=192]"_cresc." (A2 !>!B3 A) | (=G2 !>!A3 G) | %46
 (_G2 A2 D2) | (E=GBe=gb) |!f! (e'2 !>!f'3 e' | =d'_d' c'2 _c'2) | (b2 !>!=c'3 b | =a_a =g2 _g2) | %52
"_cresc." (f2 !>!g3 f) | (_f2 !>!g3 f) | (e2 _f2 =c2[Q:1/4=160] |[Q:1/4=192] [=FBd]efbd'f') | %56
!ff! e'4 =d'2- | d'2 _d'4 | c'4 _c'2- | c'2 b2[Q:1/4=150] __b2 |[Q:1/4=192] [Aa]6 | (a6 | e6 | f6 | %64
 [Ad]6) | (A6 | E6 | F6[Q:1/4=188][Q:1/4=184] |[K:bass][Q:1/4=180] [F,D]6) | %69
!p![Q:1/4=192] ([G,B,]3 F [G,B,]2- | [G,B,]F [G,C]3 F | [F,D]3 C [F,B,]2- | [F,B,]6) | %73
[K:treble]!pp! ([GB]3 f [GB]2- | [GB]f [Gc]3 f | [Fd]3 c[Q:1/4=184] [FB]2-[Q:1/4=188] | %76
[Q:1/4=180] [FB]6) |[K:bass]!mf![Q:1/4=192] (B,3 F B,2- | B,F E3 F) |[K:treble]!p!!>(! (B3 f B2- | %80
 Bf e3 f)!>)! |!pp!!pp!!pp! [Fdf]6- | [Fdf]6 | [Ada]6 | [dfd']6 | [fd'f']6 |!8va(! [a_f'a']6 | %87
 [^c'=a'^c'']6 |!>(! [=e'^c''=e'']6!>)![Q:1/4=186][Q:1/4=180] |[Q:1/4=120] [f'd''f'']4 z2!8va)! | %90
!ppp! [dfa]6 | z6 | z6 |] %93
V:2
!ped! (D,2 A,4)!ped-up! |!ped! A,,6!ped-up! |!ped! (D,2 A,4)!ped-up! |!ped! A,,6!ped-up! | %4
!ped! (D,2 A,4)!ped-up! |!ped! A,,6!ped-up! |!ped! (D,2 A,4)!ped-up! |!ped! A,,6!ped-up! | %8
!ped! (D,2 D4)!ped-up! |!ped! D,6!ped-up! |!ped! (D,2 D4)!ped-up! |!ped! D,6!ped-up! | %12
!ped! (D,2 !>!=A,4-)!ped-up! |!ped! [D,A,-]6!ped-up! |!ped! [D,A,]2 B,4!ped-up! | %15
!ped! (A,,2 D,2 A,2)!ped-up! |[K:treble]!ped! (D2 A4)!ped-up! | %17
[K:bass]!ped! (A,,2 D,2 A,2)!ped-up! |[K:treble]!ped! (D2 A4)!ped-up! | %19
[K:bass]!ped! (A,,2 D,2 A,2)!ped-up! |[K:treble]!ped! (D2 A4)!ped-up! | %21
[K:bass]!ped! (A,,2 D,2 A,2)!ped-up! |[K:treble]!ped! (D2 A4)!ped-up! | %23
[K:bass]!ped! (A,,2 D,2 A,2)!ped-up! |[K:treble]!ped! (D2 d4)!ped-up! | %25
[K:bass]!ped! (A,,2 D,2 A,2)!ped-up! |[K:treble]!ped! (D2 d4)!ped-up! | %27
[K:bass]!ped! (A,,2 D,2 A,2)!ped-up! |[K:treble]!ped! z2 =A4-!ped-up! |!ped! =A4 A2!ped-up! | %30
[K:bass]!ped! (B,,2 B,4)!ped-up! |[K:treble]!ped! B,2 B2 B2!ped-up! |!ped! B,2 B2 B2!ped-up! | %33
!ped! B,2 B2 B2!ped-up! |!ped! B,2 B2 B2!ped-up! |!ped! B,2 B2 B2!ped-up! | %36
!ped! B,2 B2 B2!ped-up! |!ped! B,2 B2 B2!ped-up! |!ped! B,2 B2 B2!ped-up! |!ped! B,6!ped-up! | %40
[K:bass]!ped! B,,2 B,2 B,2!ped-up! |!ped! B,,2 B,2 B,2!ped-up! |!ped! B,,2 B,2 B,2!ped-up! | %43
!ped! B,,2 B,2 B,2!ped-up! |!ped! B,,2 B,2 B,2!ped-up! |!ped! B,,2 B,2 B,2!ped-up! | %46
!ped! (B,,2 _F2 _F,2)!ped-up! |!ped! [B,,=G,D]6!ped-up! |!ped! (A,,,2 A,,2 A,2)!ped-up! | %49
!ped! (A,,2 A,2 A2)!ped-up! |!ped! (A,,,2 A,,2 A,2)!ped-up! |!ped! (A,,2 A,2 A2)!ped-up! | %52
!ped! (A,,,2 A,,2 A,2)!ped-up! |!ped! (A,,2 A,2 A2)!ped-up! |!ped! (A,,,2 A,,2 A,2)!ped-up!!ped! | %55
 !arpeggio![A,,=F,A,]6!ped-up! |"^appassionato"!ped! x4 =D2!ped-up! |!ped! x2 _D4!ped-up! | %58
!ped! C4 _C2-!ped-up! |!ped! C2 B,2 __B,2!ped-up! |!ped! (F,,2 D,2 A,2)!ped-up! | %61
!ped! =D6!ped-up! |!ped! (G,,2 E2 B,2)!ped-up! |!ped! (A,,2 G2 =C2)!ped-up! | %64
!ped! (F4 A,2)!ped-up! |!ped! (F,,4 =D,2)!ped-up! |!ped! (G,,4 E,2)!ped-up! | %67
!ped! (A,,4 [G,=C]2)!ped-up! |!ped! (D,,2 A,,2 D,2)!ped-up! |!ped! (A,2 A,,4)!ped-up! | %70
!ped! (A,,,2 A,,2 A,2-)!ped-up! |!ped! ([D,A,]2 A,,4)!ped-up! |!ped! (A,,,2 A,,2 A,2)!ped-up! | %73
!ped! (A2 A,4)!ped-up! |!ped! (A,,2 A,2 A2-)!ped-up! |!ped! ([DA]2 A,4)!ped-up! | %76
!ped! (A,2 D,2 A,,2)!ped-up! |!ped! (D,6- | D,2 C,4)!ped-up! |!ped! (D6- | D2 C4)!ped-up! | %81
[K:treble]!ped! (=A2 B3 A | _A=G _G2 F2)!ped-up! |!ped! (=E2 F3 E | _E=D _D2 C2)!ped-up! | %85
[K:bass]!ped! (=B,2 C3 B,)!ped-up! |!ped! (_B,2 _C3 B,)!ped-up! |!ped! (=A,2 _B,3 A,)!ped-up! | %88
 !tenuto!.=G,!tenuto!.=E,!tenuto!.^C,!tenuto!.=A,,!tenuto!.=G,,!tenuto!.=E,, |!ped! D,,4 z2 | F6 | %91
 z6 | z6!ped-up! |] %93
V:3
 x6 | x6 | x6 | x6 | x6 | x6 | x6 | x6 | x6 | x6 | x6 | x6 | x6 | x6 | x6 | x6 |[K:treble] x6 | %17
[K:bass] x6 |[K:treble] x6 |[K:bass] x6 |[K:treble] x6 |[K:bass] x6 |[K:treble] x6 |[K:bass] x6 | %24
[K:treble] x6 |[K:bass] x6 |[K:treble] x6 |[K:bass] x6 |[K:treble] D6 | C2 F,2 E2 |[K:bass] x6 | %31
[K:treble] x6 | x6 | x6 | x6 | x6 | x6 | x6 | x6 | x6 |[K:bass] x6 | x6 | x6 | x6 | x6 | x6 | x6 | %47
 x6 | x6 | x6 | x6 | x6 | x6 | x6 | x4 x3/2 x/4x/4 | x6 | [_C,,_C,]6 | [B,,,B,,]4 [=A,,,=A,,]2 | %58
 [=A,,,=A,,]2 [_A,,,_A,,]4 | [=G,,,=G,,]3 x/ x/ !arpeggio!_G,,2 | x6 | x6 | x6 | x6 | x6 | x6 | %66
 x6 | x6 | x6 | x6 | x6 | x6 | x6 | x6 | x6 | x6 | x6 | G,,6- | G,,6 | G,6- | G,6 |[K:treble] D6- | %82
 D6 | x6 | x6 |[K:bass] x6 | x6 | x6 | x6 | x6 | x6 | x6 | x6 |] %93
V:4
 x6 | x6 | x6 | x6 | x6 | x6 | x6 | x6 |[K:treble] x6 | x6 | x6 | x6 | x6 | x6 |[K:bass] x6 | x6 | %16
[K:treble] x6 | x6 | x6 | x6 | x6 | x6 | x6 | x6 | x6 | x6 | x6 | x6 | x6 | x6 | F6 | x6 | [gb]6 | %33
 [gb]6 | [eg]6 | e6 | G6 | G6 | G4 [_FG]2 | x6 | [_ce]6 | [_ce]6 | [A_c]6 | A6 | _C6 | [_C__E]6 | %46
 [B,D]4 A,2 | x6 | [_gb]6 | [gb]6 | [eg]6 | e4 [Be]2 | [=A=c]6 | [_A_c]6 | [=GB]4 [_G=A]2 | x6 | %56
 ([aa']2 [bb']3 [aa'] | [_g_g'][ff'] [ee']2 [=e=e']2) | [ff']2 [gg']3 [ff'] | %59
 [ee'][dd'] [c=c']2 [dd']2 | (d2 e3"_dim." d) | (_c2 d3 c) | (B2 =c3 B) | (__B2 _c3 B) | %64
 (D2 E3 D) | (_C2 D3 C) | (B,2 C3 B,) | (__B,2 _C3 B,) |[K:bass] x6 | x6 | x6 | x6 | x6 | %73
[K:treble] x6 | x6 | x6 | x6 |[K:bass] B,6- | B,2 =A,4 |[K:treble] B6- | B2 =A4 | x6 | x6 | x6 | %84
 x6 | x6 |!8va(! x6 | x6 | x6 | x6!8va)! | x6 | x6 | x6 |] %93

